X:348
T:Tannerman, The
R:polka 32 rant
C:P J Headford
M:2/4
L:1/8
Q:1/4=140
K:G
|:D|G2GB A2AB|G2G2 d3c|BAGB A2A2|B6 BA|
G2GB A2AB|G2G2 d3c|BAGA B2A2|G6 z:|
|:g|gfe2 dcB2|c2c2 d3c|BAG2 c2e2|d6 zg|
gfed dcBG|c2c2 B2GA|B2Gc B2A2|G6 z:|]

